assets/Chequered flag/Flat/chequered_flag_flat.svg

<svg xmlns="http://www.w3.org/2000/svg" width="32" height="32" fill="none"><path fill="#F4F4F4" d="m3 7-1 3v4l1 2-1 2v4l1 3 3 1h4l2-1 2 1h4l2-1 2 1h4l3-1 1-3v-4l-1-2 1-2v-4l-1-3-3-1h-4l-2 1-2-1h-4l-2 1-2-1H6L3 7Z"/><path fill="#000" d="M18 14v4h4v-4h-4Z"/><path fill="#000" d="M6 6H3a1 1 0 0 0-1 1v3h4v4H2v4h4v4H2v3a1 1 0 0 0 1 1h3v-4h4v4h4v-4h4v4h4v-4h4v4h3a1 1 0 0 0 1-1v-3h-4v-4h4v-4h-4v-4h4V7a1 1 0 0 0-1-1h-3v4h-4V6h-4v4h-4V6h-4v4H6V6Zm4 8v-4h4v4h-4Zm0 4h4v-4h4v-4h4v4h4v4h-4v4h-4v-4h-4v4h-4v-4Zm0 0H6v-4h4v4Z"/></svg>

<svg width="32" height="32" viewBox="0 0 32 32" fill="none" xmlns="http://www.w3.org/2000/svg">
<path d="M3 7L2 10V14L3 16L2 18V22L3 25L6 26H10L12 25L14 26H18L20 25L22 26H26L29 25L30 22V18L29 16L30 14V10L29 7L26 6H22L20 7L18 6H14L12 7L10 6H6L3 7Z" fill="#F4F4F4"/>
<path d="M18 14V18H22V14H18Z" fill="black"/>
<path d="M6 6H3C2.44772 6 2 6.44772 2 7V10H6V14H2V18H6V22H2V25C2 25.5523 2.44772 26 3 26H6V22H10V26H14V22H18V26H22V22H26V26H29C29.5523 26 30 25.5523 30 25V22H26V18H30V14H26V10H30V7C30 6.44772 29.5523 6 29 6H26V10H22V6H18V10H14V6H10V10H6V6ZM10 14V10H14V14H10ZM10 18H14V14H18V10H22V14H26V18H22V22H18V18H14V22H10V18ZM10 18H6V14H10V18Z" fill="black"/>
</svg>
